icon-svg/alpine.svg

<svg xmlns="http://www.w3.org/2000/svg" fill="#44739e" viewBox="0 0 24 24"><path d="M13.382 16.911h.463v1.714h-.463Zm4.314 1.057-1.915-1.058h-.467v1.714h.428v-1.266l2.387 1.315V16.91h-.433zm2.365.348v-.409h1.878v-.308h-1.878v-.38h1.878v-.308h-2.341v1.713h2.316l.086-.308ZM2 18.624h.546l.289-.326H4.4l.289.326h.546l-1.617-1.768Zm1.112-.634.506-.571.507.571Zm9.054-.516c0-.333-.236-.563-.75-.563h-1.98v1.714H9.9v-.573h1.5c.55 0 .766-.233.766-.578m-.86.269H9.9v-.524h1.4c.279 0 .364.086.364.267.004.159-.116.257-.358.257m-4.612-.832h-.463v1.714h2.103l.13-.309h-1.77Zm10.266-1.822.719-2.219h2.443l1.818-1.407h-3.8l2.085-6.406h-2.17l-8.279 6.406H6.5l.9-2.773L2 12.87h5.956l-2.868 2.217H7.77l2.87-2.219h4.875l-.723 2.219zm-4.5-3.626 4.694-3.631-1.18 3.631z"/></svg>

<?xml version="1.0" encoding="UTF-8"?>
<svg width="24px" fill="#44739e" height="24px" viewBox="0 0 24 24" version="1.1" xmlns="http://www.w3.org/2000/svg" xmlns:xlink="http://www.w3.org/1999/xlink">
            <path d="m 13.382,16.910999 h 0.463 v 1.714 H 13.382 Z M 17.696,17.968 15.781,16.91 h -0.467 v 1.714 h 0.428 v -1.266 l 2.387,1.315 V 16.91 h -0.433 z m 2.365,0.348 v -0.409 h 1.878 v -0.308 h -1.878 v -0.38 h 1.878 v -0.308 h -2.341 v 1.713 h 2.316 L 22,18.316 Z M 2,18.624 H 2.546 L 2.835,18.298 H 4.4 l 0.289,0.326 H 5.235 L 3.618,16.856 Z M 3.112,17.99 3.618,17.419 4.125,17.99 Z m 9.054,-0.516 c 0,-0.333 -0.236,-0.563 -0.75,-0.563 h -1.98 v 1.714 H 9.9 v -0.573 h 1.5 c 0.55,0 0.766,-0.233 0.766,-0.578 z m -0.86,0.269 H 9.9 v -0.524 h 1.4 c 0.279,0 0.364,0.086 0.364,0.267 0.004,0.159 -0.116,0.257 -0.358,0.257 z M 6.694,16.911 H 6.231 v 1.714 h 2.103 l 0.13,-0.309 H 6.694 Z M 16.96,15.089 17.679,12.87 h 2.443 l 1.818,-1.407 h -3.8 l 2.085,-6.406 h -2.17 L 9.776,11.463 H 6.5 L 7.4,8.69 2,12.87 H 7.956 L 5.088,15.087 H 7.77 l 2.87,-2.219 h 4.875 l -0.723,2.219 z m -4.5,-3.626 4.694,-3.631 -1.18,3.631 z"/>

</svg>
